X: 4
T: the Sailor Laddie
%R: jig
B: "Twenty Four Favourite Dances for the Year 1783", Thomas Straight, ed. p.2 #2
F: http://www.vwml.org/browse/browse-collections-dance-tune-books/browse-straights1783
Z: 2014 John Chambers <jc:trillian.mit.edu>
M: 6/8
L: 1/8
K: G
g |\
B>AG GDE | A>BA ABd | e/f/gG GDE | GAG B2G |\
cAc BGB | A>BA ABd | e/f/gG GDE | GAG G2 :|
|: e/f/ |\
gag gdB | Aaa a2g | def gdB | ga/g/f/e/ gdB |\
c>de gdB | aAA ABd | e/f/gG GDE | G>AG G2 :|
% - - - - - - - - - - Dance description - - - - - - - - - -
%%begintext align
%% Right hands across left hands back again .|.
%% lead down 2 Cu up again & cast off :|. turn
%% your Partner with the right hand the same
%% with the left .|: lead thro the bottom come
%% up 1 Cu lead thro the top & cast off :|:
%%endtext
